svg/kerberos.svg

<svg width="70" height="70" viewBox="0 0 70 70" fill="none" xmlns="http://www.w3.org/2000/svg">
    <circle cx="35" cy="35" r="30" fill="white" fill-opacity="0.8"/>
    <circle cx="35" cy="35" r="32.5" stroke="#183E40" stroke-opacity="0.2" stroke-width="5"/>
    <mask id="mask0" mask-type="alpha" maskUnits="userSpaceOnUse" x="5" y="5" width="60" height="60">
        <circle cx="35" cy="35" r="30" fill="white"/>
    </mask>
    <g mask="url(#mask0)">
        <path d="M42.5912 20.1109C41.4572 20.4244 38.7811 12.0261 37.8588 12.5211C36.9516 13.0161 36.0293 15.359 36.0293 15.359C35.6816 14.501 34.7593 12.1911 33.7463 12.9171C32.4309 13.874 30.9038 18.56 30.9038 20.6059C30.9038 23.3614 28.3789 29.2023 28.3789 29.2023C28.3789 29.2023 23.4953 44.0356 26.1714 41.6101C28.8476 39.1847 32.0378 41.4451 33.459 42.7981C34.8651 44.1181 36.3771 45.9 39.4463 45.9C40.3837 45.9 43.0599 45.2731 43.0901 43.7221C43.1506 39.4321 44.7079 35.8847 44.7079 35.8847C44.7079 35.8847 45.8872 35.8187 50.6801 35.3237C55.4578 34.8287 56.7732 31.4133 56.7732 31.4133C56.7732 31.4133 59.1621 28.7403 55.1252 27.4368C49.0925 25.4899 48.2307 24.7639 48.2307 24.7639C44.9347 18.263 39.5673 19.352 39.5673 19.352C38.7659 19.3685 38.0553 19.418 37.4052 19.5005C32.8845 20.0449 31.9319 21.9094 31.9319 21.9094" fill="#B4524E"/>
        <path d="M54.4901 27.2552C54.4901 27.2552 53.5375 29.4332 56.7731 31.4297C56.7731 31.4297 59.4644 28.5917 54.4901 27.2552Z" fill="#414042"/>
        <path d="M41.2606 25.3579C41.2606 25.3579 45.1311 23.4274 45.4638 27.2553C45.4638 27.2553 44.7229 27.0408 43.9821 27.2553C43.2866 27.4533 42.0619 27.6843 41.2606 25.3579Z" fill="#414042"/>
        <path d="M31.705 21.5299C31.705 21.5299 31.4933 20.2759 31.7655 18.857C32.2493 16.217 34.1392 12.4716 34.9557 13.2966C35.9536 14.3195 36.3013 14.8475 36.7398 19.616C36.7398 19.616 34.0788 19.5005 31.705 21.5299Z" fill="#414042"/>
        <path d="M37.4051 19.517C37.4051 19.517 36.7398 13.2636 38.4332 12.9336C38.6147 12.9336 41.6537 19.4015 41.7595 19.4345C41.9863 19.484 39.8242 19.1045 37.4051 19.517Z" fill="#414042"/>
        <path d="M28.5754 28.6578C28.5754 28.6578 30.0722 40.1417 31.8714 41.5606C31.8714 41.5606 28.5754 39.5312 25.8085 41.9566C25.7934 41.9731 23.2684 42.3526 28.5754 28.6578Z" fill="#414042"/>
        <g opacity="0.66">
            <g opacity="0.66">
                <g opacity="0.66">
                    <path opacity="0.66" d="M30.7979 21.7444C30.7979 21.7444 32.3703 45.9165 42.9993 44.2005C42.9993 44.2005 42.5759 45.669 39.4462 45.933C39.4462 45.933 36.8306 46.3455 34.3358 43.656C34.3358 43.656 32.083 41.6761 31.8563 41.5771C31.8563 41.5771 30.5862 40.7026 29.8605 36.1322C29.8605 36.1322 28.3637 29.1528 28.5602 28.6743C28.5753 28.6578 30.7828 22.4374 30.7979 21.7444Z" fill="#6D6E71"/>
                </g>
            </g>
        </g>
        <path d="M37.6924 34.2678C37.6924 34.2678 43.1052 36.6603 44.7079 35.9178C44.7079 35.9178 44.0729 37.6338 43.9368 38.1618C43.9368 38.1618 43.6495 39.2672 43.5739 39.6632C43.5739 39.6467 38.2821 40.7027 37.6924 34.2678Z" fill="#414042"/>
        <path d="M37.6924 34.2678C37.6924 34.2678 38.0855 39.4652 43.5738 39.6467C43.5738 39.6467 43.1505 42.0062 43.1505 42.5012C43.1505 42.5012 35.2732 42.8807 37.6924 34.2678Z" fill="#58595B"/>
        <g opacity="0.26">
            <g opacity="0.26">
                <g opacity="0.26">
                    <path opacity="0.26" d="M55.0646 33.6077C55.0646 33.6077 43.0144 34.5647 37.6772 34.2677C37.6772 34.2677 43.1354 36.7261 44.6927 35.9176C44.6927 35.9176 50.7253 35.4391 51.6174 35.2081C51.6325 35.2081 53.5224 34.9441 55.0646 33.6077Z" fill="#C49A6C"/>
                </g>
            </g>
        </g>
        <path d="M26.0504 25.3248C24.9165 25.6383 22.2403 17.2399 21.3181 17.7349C20.4109 18.2299 19.4886 20.5729 19.4886 20.5729C19.1409 19.7149 18.2186 17.4049 17.2056 18.1309C15.8902 19.0879 14.3631 23.7738 14.3631 25.8198C14.3631 28.5753 11.8382 34.4162 11.8382 34.4162C11.8382 34.4162 6.95458 49.2494 9.63072 46.824C12.3069 44.3985 15.4819 46.659 16.9183 48.012C18.3244 49.3319 19.8364 51.1139 22.9056 51.1139C23.843 51.1139 26.5191 50.4869 26.5494 48.9359C26.6099 44.646 28.1672 41.0986 28.1672 41.0986C28.1672 41.0986 29.3465 41.0326 34.1393 40.5376C38.9171 40.0426 40.2325 36.6271 40.2325 36.6271C40.2325 36.6271 42.6214 33.9542 38.5845 32.6507C32.5518 30.7037 31.69 29.9777 31.69 29.9777C28.394 23.4768 23.0266 24.5658 23.0266 24.5658C22.2252 24.5823 21.5146 24.6318 20.8645 24.7143C16.3438 25.2588 15.3912 27.1233 15.3912 27.1233" fill="#B4524E"/>
        <path d="M37.9494 32.4528C37.9494 32.4528 36.9968 34.6307 40.2324 36.6272C40.2324 36.6272 42.9237 33.7892 37.9494 32.4528Z" fill="#414042"/>
        <path d="M24.7198 30.5553C24.7198 30.5553 28.5904 28.6248 28.9231 32.4527C28.9231 32.4527 28.1822 32.2382 27.4413 32.4527C26.7459 32.6507 25.5212 32.8817 24.7198 30.5553Z" fill="#414042"/>
        <path d="M15.1644 26.7273C15.1644 26.7273 14.9528 25.4733 15.2249 24.0544C15.7087 21.4144 17.5987 17.669 18.4151 18.4939C19.413 19.5169 19.7607 20.0449 20.1992 24.8133C20.1992 24.8133 17.5382 24.6978 15.1644 26.7273Z" fill="#414042"/>
        <path d="M20.8645 24.7143C20.8645 24.7143 20.1992 18.4609 21.8926 18.1309C22.074 18.1309 25.113 24.5988 25.2189 24.6318C25.4456 24.6813 23.2836 24.3018 20.8645 24.7143Z" fill="#414042"/>
        <path d="M12.0347 33.8552C12.0347 33.8552 13.5315 45.3391 15.3307 46.758C15.3307 46.758 12.0347 44.7286 9.2678 47.154C9.25268 47.1705 6.72773 47.55 12.0347 33.8552Z" fill="#414042"/>
        <path d="M14.2572 26.9418C14.2572 26.9418 15.8296 51.1139 26.4586 49.3979C26.4586 49.3979 26.0352 50.8664 22.9055 51.1304C22.9055 51.1304 20.2898 51.5429 17.7951 48.8534C17.7951 48.8534 15.5423 46.8735 15.3155 46.7745C15.3155 46.7745 14.0455 45.9 13.3198 41.3296C13.3198 41.3296 11.8229 34.3502 12.0195 33.8717C12.0346 33.8552 14.2421 27.6348 14.2572 26.9418Z" fill="#6D6E71"/>
        <path d="M21.1517 39.465C21.1517 39.465 26.5645 41.8574 28.1672 41.1149C28.1672 41.1149 27.7438 42.8309 27.6229 43.3589C27.6229 43.3589 27.5624 44.9924 27.4717 45.3719C27.4565 45.3719 21.7414 45.8999 21.1517 39.465Z" fill="#414042"/>
        <path d="M21.1516 39.465C21.1516 39.465 21.7867 44.7614 27.275 44.9594C27.275 44.9594 26.6098 47.2033 26.6098 47.6983C26.6098 47.6983 18.7325 48.0943 21.1516 39.465Z" fill="#58595B"/>
        <g opacity="0.26">
            <g opacity="0.26">
                <g opacity="0.26">
                    <path opacity="0.26" d="M38.5239 38.8051C38.5239 38.8051 26.4737 39.762 21.1365 39.465C21.1365 39.465 26.5947 41.9235 28.152 41.115C28.152 41.115 34.1846 40.6365 35.0767 40.4055C35.0918 40.4055 36.9817 40.158 38.5239 38.8051Z" fill="#C49A6C"/>
                </g>
            </g>
        </g>
        <path d="M39.2497 41.4286C38.1157 41.7421 35.4396 33.3437 34.5173 33.8387C33.6101 34.3337 32.6878 36.6766 32.6878 36.6766C32.3401 35.8187 31.4178 33.5087 30.4048 34.2347C29.0894 35.1917 27.6077 39.8776 27.5623 41.9236C27.4867 45.306 25.0071 50.7674 25.0374 50.5199C25.0374 50.5199 20.1538 65.3532 22.8299 62.9277C25.5061 60.5023 28.6812 62.7627 30.1175 64.1157C31.5236 65.4357 33.0356 67.2177 36.1048 67.2177C37.0422 67.2177 39.7184 66.5907 39.7486 65.0397C39.8091 60.7498 41.3664 57.2023 41.3664 57.2023C41.3664 57.2023 42.5457 57.1363 47.3386 56.6413C52.1163 56.1463 53.4317 52.7309 53.4317 52.7309C53.4317 52.7309 55.8206 50.0579 51.7837 48.7545C45.751 46.8075 44.8892 46.0815 44.8892 46.0815C41.5932 39.5806 36.2258 40.6696 36.2258 40.6696C35.4244 40.6861 34.7138 40.7356 34.0637 40.8181C29.543 41.3626 28.5904 43.227 28.5904 43.227" fill="#B4524E"/>
        <path d="M51.1486 48.5564C51.1486 48.5564 50.1961 50.7344 53.4317 52.7308C53.4317 52.7473 56.1229 49.8929 51.1486 48.5564Z" fill="#414042"/>
        <path d="M37.9191 46.6589C37.9191 46.6589 41.7897 44.7284 42.1223 48.5564C42.1223 48.5564 41.3815 48.3419 40.6406 48.5564C39.9451 48.7544 38.7205 48.9854 37.9191 46.6589Z" fill="#414042"/>
        <path d="M28.3788 42.8311C28.3788 42.8311 28.1672 41.5771 28.4393 40.1581C28.9231 37.5182 30.8131 33.7727 31.6295 34.5977C32.6274 35.6207 32.9752 36.1487 33.4136 40.9171C33.3985 40.9171 30.7375 40.8181 28.3788 42.8311Z" fill="#414042"/>
        <path d="M34.0637 40.818C34.0637 40.818 33.3985 34.5646 35.0919 34.2346C35.2733 34.2346 38.3123 40.7025 38.4181 40.7355C38.6449 40.785 36.498 40.4055 34.0637 40.818Z" fill="#414042"/>
        <path d="M25.0373 50.3385C25.1129 50.619 29.4673 64.1818 31.0851 65.0068C31.0851 65.0068 25.2944 60.6673 22.5275 63.0928C22.5426 63.0928 19.7304 64.0333 25.0373 50.3385Z" fill="#414042"/>
        <path d="M34.351 55.569C34.351 55.569 39.7637 57.9614 41.3664 57.2189C41.3664 57.2189 40.7314 58.9349 40.5953 59.4629C40.5953 59.4629 40.308 60.5684 40.2324 60.9644C40.2324 60.9479 34.9406 62.0039 34.351 55.569Z" fill="#414042"/>
        <path d="M34.351 55.569C34.351 55.569 34.7441 60.7664 40.2325 60.9479C40.2325 60.9479 39.8091 63.3074 39.8091 63.8023C39.8091 63.8023 31.9319 64.1983 34.351 55.569Z" fill="#58595B"/>
        <g opacity="0.26">
            <g opacity="0.26">
                <g opacity="0.26">
                    <path opacity="0.26" d="M51.7383 54.9089C51.7383 54.9089 39.6881 55.8659 34.351 55.5689C34.351 55.5689 39.8091 58.0274 41.3664 57.2189C41.3664 57.2189 47.399 56.7404 48.2911 56.5094C48.2911 56.5094 50.181 56.2619 51.7383 54.9089Z" fill="#C49A6C"/>
                </g>
            </g>
        </g>
        <path d="M8.82935 46.8405C8.82935 46.8405 14.2119 61.3273 22.7241 63.3402L22.9811 59.9413L24.8862 53.1599L25.0525 50.3219C25.0525 50.3219 19.5339 50.4539 16.7822 47.7645C16.7822 47.7645 16.1925 47.385 15.3307 46.7415C14.4689 46.098 9.28293 44.5965 9.419 46.197C9.55508 47.7975 9.20733 45.9 9.20733 45.9L8.82935 46.8405Z" fill="#414042"/>
        <path d="M34.1393 68.4221L36.3165 66.8052C36.3165 66.8052 31.5388 67.6962 29.3313 62.0532C27.1239 56.4103 26.0202 59.8258 26.0202 59.8258L24.9618 62.7462L27.4263 67.3662L32.4157 68.8016L34.1393 68.4221Z" fill="#414042"/>
        <path d="M11.9893 34.0698C11.9893 34.0698 14.1514 59.5289 25.0979 50.4541L24.2512 49.9921L22.2101 49.6291L20.2597 48.1936L17.4626 43.6067L14.4538 37.3533L11.9893 34.0698Z" fill="#6D6E71"/>
        <path d="M8.92004 43.5901C8.92004 43.5901 3.47704 65.7822 8.13383 64.1983C8.13383 64.1983 18.279 62.2678 24.5233 67.4982C24.5233 67.4982 36.8608 77.7446 39.7335 65.2048C39.3101 67.1022 26.9273 69.3792 25.37 61.2943C24.0697 54.5954 15.3156 52.7309 15.3156 52.7309L8.92004 43.5901Z" fill="#414042"/>
    </g>
</svg>

<svg xmlns="http://www.w3.org/2000/svg" width="70" height="70" fill="none"><circle cx="35" cy="35" r="30" fill="#fff" fill-opacity=".8"/><circle cx="35" cy="35" r="32.5" stroke="#183E40" stroke-opacity=".2" stroke-width="5"/><mask id="a" width="60" height="60" x="5" y="5" mask-type="alpha" maskUnits="userSpaceOnUse"><circle cx="35" cy="35" r="30" fill="#fff"/></mask><g mask="url(#a)"><path fill="#B4524E" d="M42.591 20.11c-1.134.314-3.81-8.084-4.732-7.589-.907.495-1.83 2.838-1.83 2.838-.347-.858-1.27-3.168-2.283-2.442-1.315.957-2.842 5.643-2.842 7.689 0 2.755-2.525 8.596-2.525 8.596S23.495 44.036 26.17 41.61c2.677-2.425 5.867-.165 7.288 1.188 1.406 1.32 2.918 3.102 5.987 3.102.938 0 3.614-.627 3.644-2.178.06-4.29 1.618-7.837 1.618-7.837s1.18-.066 5.972-.561c4.778-.495 6.093-3.91 6.093-3.91s2.39-2.674-1.648-3.977c-6.032-1.947-6.894-2.673-6.894-2.673-3.296-6.501-8.664-5.412-8.664-5.412-.801.017-1.512.066-2.162.148-4.52.545-5.473 2.41-5.473 2.41"/><path fill="#414042" d="M54.49 27.255s-.953 2.178 2.283 4.175c0 0 2.691-2.838-2.283-4.175Zm-13.23-1.897s3.871-1.93 4.204 1.897c0 0-.741-.214-1.482 0-.695.198-1.92.43-2.721-1.897Zm-9.555-3.828s-.212-1.254.06-2.673c.484-2.64 2.374-6.385 3.19-5.56.999 1.022 1.346 1.55 1.785 6.319 0 0-2.661-.116-5.035 1.914Zm5.7-2.013s-.665-6.253 1.028-6.583c.182 0 3.22 6.467 3.327 6.5.226.05-1.936-.33-4.355.083Zm-8.83 9.141s1.497 11.484 3.296 12.903c0 0-3.296-2.03-6.063.396-.015.016-2.54.396 2.767-13.3Z"/><path fill="#6D6E71" d="M30.798 21.744S32.37 45.916 42.999 44.2c0 0-.423 1.469-3.553 1.733 0 0-2.615.413-5.11-2.277 0 0-2.253-1.98-2.48-2.079 0 0-1.27-.874-1.996-5.445 0 0-1.496-6.98-1.3-7.458.015-.016 2.223-6.237 2.238-6.93Z" opacity=".66"/><path fill="#414042" d="M37.692 34.268s5.413 2.392 7.016 1.65c0 0-.635 1.716-.771 2.244 0 0-.287 1.105-.363 1.501 0-.016-5.292 1.04-5.882-5.395Z"/><path fill="#58595B" d="M37.692 34.268s.394 5.197 5.882 5.379c0 0-.423 2.36-.423 2.854 0 0-7.878.38-5.459-8.233Z"/><path fill="#C49A6C" d="M55.065 33.608s-12.05.957-17.388.66c0 0 5.458 2.458 7.016 1.65 0 0 6.032-.479 6.924-.71.016 0 1.905-.264 3.448-1.6Z" opacity=".26"/><path fill="#B4524E" d="M26.05 25.325c-1.134.313-3.81-8.085-4.732-7.59-.907.495-1.83 2.838-1.83 2.838-.347-.858-1.27-3.168-2.282-2.442-1.316.957-2.843 5.643-2.843 7.689 0 2.755-2.525 8.596-2.525 8.596S6.955 49.25 9.631 46.824c2.676-2.425 5.85-.165 7.287 1.188 1.406 1.32 2.918 3.102 5.988 3.102.937 0 3.613-.627 3.643-2.178.06-4.29 1.618-7.837 1.618-7.837s1.18-.066 5.972-.561c4.778-.495 6.093-3.91 6.093-3.91s2.39-2.674-1.648-3.977c-6.032-1.947-6.894-2.673-6.894-2.673-3.296-6.501-8.663-5.412-8.663-5.412-.802.016-1.512.066-2.163.148-4.52.545-5.473 2.41-5.473 2.41"/><path fill="#414042" d="M37.95 32.453s-.953 2.178 2.282 4.174c0 0 2.692-2.838-2.283-4.174Zm-13.23-1.898s3.87-1.93 4.203 1.898c0 0-.74-.215-1.482 0-.695.198-1.92.429-2.721-1.898Zm-9.556-3.828s-.211-1.254.06-2.673c.485-2.64 2.375-6.385 3.191-5.56.998 1.023 1.346 1.55 1.784 6.32 0 0-2.66-.116-5.035 1.913Zm5.7-2.013s-.665-6.253 1.029-6.583c.181 0 3.22 6.468 3.326 6.5.227.05-1.935-.33-4.355.083Zm-8.829 9.141S13.53 45.34 15.33 46.758c0 0-3.296-2.03-6.063.396-.015.016-2.54.396 2.767-13.299Z"/><path fill="#6D6E71" d="M14.257 26.942S15.83 51.114 26.46 49.398c0 0-.424 1.468-3.553 1.732 0 0-2.616.413-5.11-2.277 0 0-2.254-1.98-2.48-2.078 0 0-1.27-.875-1.996-5.445 0 0-1.497-6.98-1.3-7.458.015-.017 2.222-6.237 2.237-6.93Z"/><path fill="#414042" d="M21.152 39.465s5.412 2.392 7.015 1.65c0 0-.423 1.716-.544 2.244 0 0-.06 1.633-.151 2.013-.016 0-5.73.528-6.32-5.907Z"/><path fill="#58595B" d="M21.152 39.465s.635 5.296 6.123 5.494c0 0-.665 2.244-.665 2.74 0 0-7.877.395-5.458-8.234Z"/><path fill="#C49A6C" d="M38.524 38.805s-12.05.957-17.387.66c0 0 5.458 2.458 7.015 1.65 0 0 6.033-.479 6.925-.71.015 0 1.905-.247 3.447-1.6Z" opacity=".26"/><path fill="#B4524E" d="M39.25 41.429c-1.134.313-3.81-8.085-4.733-7.59-.907.495-1.83 2.838-1.83 2.838-.347-.858-1.27-3.168-2.282-2.442-1.316.957-2.797 5.643-2.843 7.689-.075 3.382-2.555 8.843-2.525 8.596 0 0-4.883 14.833-2.207 12.408 2.676-2.426 5.851-.165 7.288 1.188 1.406 1.32 2.918 3.102 5.987 3.102.937 0 3.613-.627 3.644-2.178.06-4.29 1.617-7.838 1.617-7.838s1.18-.066 5.973-.56c4.777-.496 6.093-3.911 6.093-3.911s2.389-2.673-1.648-3.977c-6.033-1.947-6.895-2.672-6.895-2.672-3.296-6.501-8.663-5.412-8.663-5.412-.802.016-1.512.066-2.162.148-4.521.545-5.474 2.409-5.474 2.409"/><path fill="#414042" d="M51.149 48.556s-.953 2.178 2.283 4.175c0 .016 2.69-2.838-2.283-4.175ZM37.92 46.659s3.87-1.93 4.202 1.897c0 0-.74-.214-1.481 0-.696.198-1.92.43-2.722-1.897Zm-9.541-3.828s-.212-1.254.06-2.673c.484-2.64 2.374-6.385 3.19-5.56.998 1.023 1.346 1.55 1.785 6.32-.016 0-2.677-.1-5.035 1.913Zm5.685-2.013s-.666-6.253 1.028-6.583c.181 0 3.22 6.468 3.326 6.5.227.05-1.92-.33-4.354.083Zm-9.027 9.521c.076.28 4.43 13.843 6.048 14.668 0 0-5.79-4.34-8.558-1.914.016 0-2.797.94 2.51-12.755Zm9.314 5.23s5.413 2.392 7.015 1.65c0 0-.635 1.716-.77 2.244 0 0-.288 1.105-.364 1.501 0-.016-5.291 1.04-5.881-5.395Z"/><path fill="#58595B" d="M34.351 55.569s.393 5.197 5.882 5.379c0 0-.424 2.36-.424 2.854 0 0-7.877.396-5.458-8.233Z"/><path fill="#C49A6C" d="M51.738 54.909s-12.05.957-17.387.66c0 0 5.458 2.458 7.015 1.65 0 0 6.033-.479 6.925-.71 0 0 1.89-.247 3.447-1.6Z" opacity=".26"/><path fill="#414042" d="M8.83 46.84s5.382 14.487 13.894 16.5l.257-3.399 1.905-6.781.166-2.838s-5.518.132-8.27-2.558c0 0-.59-.379-1.451-1.023-.862-.643-6.048-2.145-5.912-.544.136 1.6-.212-.297-.212-.297l-.378.94Zm25.31 21.582 2.176-1.617s-4.777.891-6.985-4.752c-2.207-5.643-3.31-2.227-3.31-2.227l-1.06 2.92 2.465 4.62 4.99 1.436 1.723-.38Z"/><path fill="#6D6E71" d="M11.99 34.07s2.161 25.459 13.108 16.384l-.847-.462-2.04-.363-1.951-1.435-2.797-4.587-3.01-6.254-2.464-3.283Z"/><path fill="#414042" d="M8.92 43.59s-5.443 22.192-.786 20.608c0 0 10.145-1.93 16.39 3.3 0 0 12.337 10.247 15.21-2.293-.424 1.897-12.807 4.174-14.364-3.91-1.3-6.7-10.054-8.564-10.054-8.564L8.92 43.59Z"/></g></svg>
